X:35
T:I'd Rather Be Married than Left
M:6/8
L:1/8
Q:120
R:Slide (Key of D)
K:Dmaj
F |: "D"ABA AFA | d2A A2F | ABA AFA | "A"B2E E2F |
"D"ABA AFA | "G"Beg f2e | "A"dcB ABc |1 "D"d2D D2F :|2 "D"d2D D2e |:
"D"f2f fed | "A"e2A A2e | "D"fef def | "G"gag e2g |
"D"fef "G"g2e | "D"fef aaf | "A"efe ABc |1 "D"d2D D2e :|2 "D"d2D D2|]
